X:1
T: The Free Masons
N:
C:
S:
A:
O:
R:
M:6/8
K:G
I:speed 165
%W:    A1                                                     A2
% voice 1 (1 lines, 45 notes)
K:G
M:6/8
L:1/16
D2 |G2 A2 B2 B2 A2 G2 F2 G2 A2 A2 G2 F2 G2 A2 B2 B2 A2 G2 B2 d4d4 D2 |G2 A2 B2 B2 A2 G2 F2 G2 A2 A2 G2 F2 G2 A2 B2 B2 A2 G2 B2 d4d4 B2 |
%W:   B1                                                    B2
% voice 1 (1 lines, 42 notes)
c2 d2 e2 e2 d2 c2 B2 A2 G2 d4 B2 c2 B2 c2 A2 d2 c2 B2 G4G4 B2 |c2 d2 e2 e2 d2 c2 B2 A2 G2 d4 B2 c2 B2 c2 A2 d2 c2 B2 G4G4 D2 |
%W:    A3                                                     A4
% voice 1 (1 lines, 44 notes)
G2 A2 B2 B2 A2 G2 F2 G2 A2 A2 G2 F2 G2 A2 B2 B2 A2 G2 B2 d4d4 D2 |G2 A2 B2 B2 A2 G2 F2 G2 A2 A2 G2 F2 G2 A2 B2 B2 A2 G2 B2 d4d4 B2 |
%W:   B3                                                    B4
% voice 1 (1 lines, 41 notes)
c2 d2 e2 e2 d2 c2 B2 A2 G2 d4 B2 c2 B2 c2 A2 d2 c2 B2 G4G4 B2 |c2 d2 e2 e2 d2 c2 B2 A2 G2 d4 B2 c2 B2 c2 A2 d2 c2 B2 G4G4 ||
